X: 10008
T: Devon Flute Player's Salute To Shetland, The
R: reel
M: 4/4
K: Dmajor
D2FA dAFD|GABd g2eg|f2df ecAF|
GABd c/B/A Bc|D2FA dAFD|GABd g2eg|
f2df ecAc|1 dfec d2AF:|2 dfec d3d||
|:daad aada|bdad ggeg|f2df ecAF|
[1 GA B/c/d gaad|daad aada|bdad g2eg|
f2df ecAc|dfec d3 d:|2 GABd c/B/A Bc|
dAFD dAFD|GABd g2eg|f2df ecAc|dfec d3 z||

